!!!!SEGMENT: pl-wn--sd-xvi-qu-273--031_gomolka-mikolaj--w-tobie-ufnosc-swa-klade-boze-niezmierzony.krn
!!!cenid: 15xx:236
!!!COM: Gomółka, Mikołaj
!!!COM-rismid: pe30013343
!!!CDT: ~1535->1591/04/30
!!!CNT: Polish
!!!GTL: Melodiae na psalterz polski
!!!OTL: XXXI. W Tobie ufność swą kładę, Boże niezmierzony,
!!!ONB: PSALM XXXI. In te domine speravi, non confundar in aeternum, in iustitia tua libera me. Inclina ad me aurem tuam:
!!!PDT: 1580
!!!AGN: Sacred
!!!SMS-siglum: PL-Wn
!!!SMS-shelfmark: SD XVI.Qu.273
!!!SMS-shelfwork: 031 G
!!!NIFC-rismid:
!!!ONB-nifc: Melodiae na psalterz polski
**kern	**text	**kern	**text	**kern	**text	**kern	**text
*part4	*part4	*part3	*part3	*part2	*part2	*part1	*part1
*staff4	*staff4	*staff3	*staff3	*staff2	*staff2	*staff1	*staff1
*clefF4	*	*clefC3	*	*clefC3	*	*clefC1	*
*k[b-]	*	*k[b-]	*	*k[b-]	*	*k[b-]	*
*b-:	*	*b-:	*	*b-:	*	*b-:	*
*M2/1	*	*M2/1	*	*M2/1	*	*M2/1	*
*met(C|)	*	*met(C|)	*	*met(C|)	*	*met(C|)	*
*I"BASSUS.	*	*I"TENOR.	*	*I"ALTUS.	*	*I"CANTUS.	*
=1-	=1	=1-	=1	=1-	=1	=1-	=1
1F\	W To-	1c\	W To-	1f\	W To-	1f/	W To-
2C/	-bie	2c/	-bie	2e\	-bie	2cc\	-bie
1F\	u-	1c\	u-	1f\	u-	1a\	u-
=2-	=2	=2-	=2	=2-	=2	=2-	=2
.	.	.	.	.	.	.	.
4E\	-fność	2d\	-fność	2f\	-fn(ość)	4g/	-fność
4D/	swą	.	.	.	.	4f/	swą
2C/	kłá-	2e\	swą	2c/	swą	4g/	.
.	.	.	.	.	.	4a\	kłá-
2G\	-dę,	4d\	kłá-	2B-/	kł(á-	2b-\	-dę,
.	.	4e\	-dę,	.	.	.	.
=3-	=3	=3-	=3	=3-	=3	=3-	=3
2.A\	Bo-	2.f\	Bo-	2.c/	-dę,)	2a\	Bo-
.	.	.	.	.	.	1a\	-że
4G\	-że	4e\	-że	4B-/	Bo-	.	.
2F\	nie-	2d\	nie-	4A/	-że	.	.
.	.	.	.	4B-/	nie-	.	.
2E\	.	2g\	-zmie-	2c/	.	2g/	nie-
=4-	=4	=4-	=4	=4-	=4	=4-	=4
2D/	-zmie-	2.f\	.	2d\	-zmie-	4a\	-zmie-
.	.	.	.	.	.	4b-\	.
2C/	.	.	.	2.g\	.	1cc\	-rzo-
.	.	4e\	-rzo-	.	.	.	.
1G\	-rzo-	4d\	.	.	.	.	.
.	.	4c\	.	4f\	-rzo-	.	.
.	.	2d\	-ny,	4f\	.	2b-\	-ny,
.	.	.	.	8e\L	-ny,	.	.
.	.	.	.	8d\J	.	.	.
=5-	=5	=5-	=5	=5-	=5	=5-	=5
2C/	-ny,	2c/	.	2e\	A	2cc\	.
1F\	A	1A/	A	1f\	ty	1cc\	A
2G\	ty	2B-/	ty	2d\	.	2b-\	ty
=6-	=6	=6-	=6	=6-	=6	=6-	=6
!!LO:PB:g=original
2A\	nie	2c/	nie	2c/	nie	1a\	nie
2F\	day	1c\	day	4f\	day	.	.
.	.	.	.	4e\	á-	.	.
2G\	á-	.	.	4d\	-bych	2g/	day
.	.	.	.	4c\	.	.	.
2G\	-bych	2B-/	á-	2d\	.	2g/	á-
=7-	=7	=7-	=7	=7-	=7	=7-	=7
!LO:SIC:s=2.C:v	!	!	!	!	!	!	!
2.BB-/	był	1c\	-bych	2.g\	był	2.e/	-bych
4D/	.	.	.	4f\	.	4f/	był
2E\	kie-	2c/	był	4e\	kie-	2g/	kie-
.	.	.	.	4d\	.	.	.
2F\	-dy	2A/	kie-	2c/	-dy	2a\	-dy
=8-	=8	=8-	=8	=8-	=8	=8-	=8
2BB-/	zá-	4B-/	-dy	2d\	zá-	4g/	zá-
.	.	4A/	zá-	.	.	4f/	-wsty-
2D/	-wsty-	4G/	-wsty-	2B-/	-wsty-	1f/	-dzo-
.	.	4F/	-dzo-	.	.	.	.
1C/	-dzo-	1G/	-ny.	2.c/	-dzo-	.	.
.	.	.	.	.	.	2e/	-ny.
.	.	.	.	4B-/	.	.	.
=9-	=9	=9-	=9	=9-	=9	=9-	=9
1FF/	-ny.	1F/	.	1A/	-ny.	1f/	.
2r	.	2r	.	2r	.	2r	.
1F\	Prze	1c\	Prze	1f\	Prze	1a\	Prze
=10-	=10	=10-	=10	=10-	=10	=10-	=10
.	.	.	.	.	.	.	.
2C/	do-	2c/	do-	2e\	do-	2g/	do-
2F\	-broć	2c/	-broć	2f\	-(broć)	2a\	-broć
2G\	swo-	2B-/	swo-	4d\	swo-	2b-\	swo-
.	.	.	.	4e\	.	.	.
=11-	=11	=11-	=11	=11-	=11	=11-	=11
2.A\	-ię,	2.c/	-ię	2.f\	-(ię)	2a\	-ię
.	.	.	.	.	.	2.cc\	rácz
4G\	.	4B-/	rácz	4e\	rácz	.	.
2F\	rácz	2A/	.	2d\	.	.	.
.	.	.	.	.	.	4b-\	.
2F\	mię	4f\	mię	2c/	mię	2a\	mię
.	.	4e\	.	.	.	.	.
=12-	=12	=12-	=12	=12-	=12	=12-	=12
!!LO:PB:g=original
2.G\	z tru-	1d\	z tru-	4B-/	z tru-	4g/	z tru-
.	.	.	.	4c/	.	4f/	.
.	.	.	.	4d\	-dno-	4g/	-dno-
4F\	-dno-	.	.	4e\	.	4a\	.
4D/	-ści	2d\	-dno-	2f\	-ści	4b-\	-ści
4E\	wy-	.	.	.	.	4a\	.
2F\	-bá-	2c/	-(ści)	2f\	wy-	1a\	wy-
=13-	=13	=13-	=13	=13-	=13	=13-	=13
1G\	.	1B-/	wy-	2.d\	-ba-	.	.
.	.	.	.	.	.	2g/	-bá-
.	.	.	.	4e\	-wić,	.	.
2F\	-wić,	2A/	-bá-	2f\	.	2a\	-wić,
1F\	U-	2A/	-wić,	1f\	U-	1a\	U-
=14-	=14	=14-	=14	=14-	=14	=14-	=14
.	.	2c/	U-	.	.	.	.
2C/	-słysz	1c\	-słysz	2e\	-słysz	2g/	-słysz
2F\	m(óy)	.	.	2f\	móy	2a\	m(óy)
2G\	gł(os)	2B-/	m(óy)	4d\	gł(os)	2b-\	gł(os)
.	.	.	.	4e\	.	.	.
=15-	=15	=15-	=15	=15-	=15	=15-	=15
2F\	á	2.c/	gł(os)	2f\	á	2.a\	á
2F\	ch(ćiey)	.	.	2f\	chć(iéy)	.	.
.	.	4d\	á	.	.	4b-\	chćiéy
2C/	mię	2e\	chćiéy	2g\	.	2cc\	mię
2D/	ná	2d\	mię	2f\	m(ię)	2a\	ná
=16-	=16	=16-	=16	=16-	=16	=16-	=16
1BB-/	swo-	2.d\	ná	2.f\	ná	2.b-\	swo-
.	.	4c/	swo-	4e\	swo-	4a\	-bo-
2BB-/	-bo-	2.B-/	-bo-	2d\	-bo-	4g\	.
.	.	.	.	.	.	4f/	.
2FF/	-(dźie)	.	.	2c/	-(dźie)	1f/	-(dźie)
.	.	4A/	.	.	.	.	.
=17-	=17	=17-	=17	=17-	=17	=17-	=17
1C/	stá-	4G/	-dźie	2.c/	stá-	.	.
.	.	4F/	.	.	.	.	.
.	.	2G/	stá-	.	.	2e/	stá-
.	.	.	.	4B-/	.	.	.
*	*	*000/left	*	*	*	*	*
!	!	!	!	!LO:N:vis=0	!	!	!
000FF/	-wić.	000F/	-wić.	000A/	-wić.	000f/	-wić.
==	==	==	==	==	==	==	==
*-	*-	*-	*-	*-	*-	*-	*-
!!!RDF**kern: l = terminal long
!!!system-decoration: s1,s2,s3,s4
!!!ENC: Marta Lawrence
!!!END: 2020-02-07
!!!URL-scan: https://polona.pl/item/melodiae-na-psalterz-polski,Nzk3MTM4ODQ/83 Scan on Polona
!!!IIIF: https://polona.pl/iiif/item/Nzk3MTM4ODQ/manifest.json
